X:567
T: Fred Finn's (A)
Z: Piano Box Version by Martin Fleischmann
H: Created 2014-03-16 /  Last Modified 2014-12-16
M: 4/4
L: 1/8
R: reel
K:Amaj
|: "A"E3C EFAB | 3(cBA) Bc AcBA | "D"F2B,C DEFD  | "A"D-E2C A,B, CD| 
"A"E3F EFAB | cABc AcBA  | "D"F2AF "E"EFAB |1 ce 3(dcB) cBAF :|2 ce 3(dcB) cAAA||
|: cAeA fAeB | c2fe cBAB | "fm"cffe f2fe | c2fe "E"cBBB |
cAeA fAeB | c2fe cBAE | F2AF EFAB | cecB cAAA|
cAeA fAeB | c2fe cBAB | "fm"cffe f2fg | affe "E"cBBB |
cAeA fAeB | c2fe cBAE | F2AF EFAB | cecB cBAF|

